svg/emoji_u1f47b.svg

<svg width="128" height="128" viewBox="0 0 128 128" fill="none" xmlns="http://www.w3.org/2000/svg">
<path d="M111.29 109.36C110.42 107.55 108.44 106.56 106.47 106.95L105.47 107.06H105.21C101.43 107.06 99.7701 106.06 98.6201 103.25C96.8701 98.98 98.3101 92.71 99.7701 87.73C102.77 77.49 106.87 63.48 106.77 49.73C106.76 47.18 106.61 44.64 106.3 42.11C105.81 38.08 104.86 34.11 103.48 30.29C103.85 49.49 100.23 74 83.7001 91C70.5 104.58 48.0001 112.49 38.9301 111C49.4301 122.21 64.5001 127.98 79.8001 126.64C93.3801 125.54 109.23 120.03 111.49 113.83C112.03 112.37 111.95 110.76 111.29 109.36Z" fill="#E0E0E0" style="fill:#E0E0E0;fill:color(display-p3 0.8784 0.8784 0.8784);fill-opacity:1;"/>
<path d="M27.63 43.86C21.82 43.18 15.8 40.43 13.63 34.93C11.92 30.66 10.46 24.29 5.47003 25.05C-0.729971 26 0.720029 38.49 2.17003 43.31C8.06003 62.91 27.25 66 27.56 65.53C27.87 65.06 29.07 43.84 27.63 43.86Z" fill="#E0E0E0" style="fill:#E0E0E0;fill:color(display-p3 0.8784 0.8784 0.8784);fill-opacity:1;"/>
<path d="M27.63 43.8601C24.47 43.5301 21.43 42.5101 18.72 40.8601C19.39 43.4401 19.11 46.1701 17.92 48.5601C15.71 53.5601 9.59998 56.2401 9.59998 56.2401C17.38 64.3701 27.34 65.8801 27.6 65.5401C28 65.0001 29.07 43.8401 27.63 43.8601Z" fill="#CCCCCC" style="fill:#CCCCCC;fill:color(display-p3 0.8000 0.8000 0.8000);fill-opacity:1;"/>
<path d="M100.37 43.86C106.18 43.18 112.2 40.43 114.37 34.93C116.08 30.66 117.54 24.29 122.53 25.05C128.7 25.99 127.25 38.49 125.8 43.31C119.91 62.91 100.72 66.01 100.41 65.53C100.1 65.05 98.93 43.84 100.37 43.86Z" fill="#E0E0E0" style="fill:#E0E0E0;fill:color(display-p3 0.8784 0.8784 0.8784);fill-opacity:1;"/>
<path d="M120.11 48.0601C116.33 52.2301 107.67 56.2101 99.73 56.7901C99.76 59.7101 99.98 62.6301 100.37 65.5301C100.69 66.0001 119.87 62.9101 125.76 43.3101C126.78 39.6601 127.18 35.8701 126.93 32.0901C126.36 37.9901 123.97 43.5701 120.11 48.0601Z" fill="#CCCCCC" style="fill:#CCCCCC;fill:color(display-p3 0.8000 0.8000 0.8000);fill-opacity:1;"/>
<path d="M106.82 49.7001C106.81 47.1501 106.66 44.6101 106.35 42.0801C104.35 25.7301 95.1101 11.5301 82.2301 5.00007C76.4001 1.98007 69.8301 0.710075 63.3001 1.35007C49.7301 2.79007 37.6201 10.4901 30.5701 22.1701C12.8301 51.8401 24.1901 87.7301 27.1901 93.8301C42.5301 125 67.3101 127.66 79.8101 126.65C93.3901 125.55 109.24 120.04 111.5 113.84C112.03 112.38 111.96 110.77 111.3 109.36C110.43 107.55 108.45 106.56 106.48 106.95L105.48 107.06H105.22C101.44 107.06 99.7801 106.06 98.6301 103.25C96.8801 98.9801 98.3201 92.7101 99.7801 87.7301C102.78 77.5101 106.89 63.5001 106.82 49.7001Z" fill="#E0E0E0" style="fill:#E0E0E0;fill:color(display-p3 0.8784 0.8784 0.8784);fill-opacity:1;"/>
<path d="M111.29 109.36C110.42 107.55 108.44 106.56 106.47 106.95L105.47 107.06H105.21C101.43 107.06 99.7701 106.06 98.6201 103.25C96.8701 98.98 98.3101 92.71 99.7701 87.73C102.77 77.49 106.87 63.48 106.77 49.73C106.76 47.18 106.61 44.64 106.3 42.11C105.81 38.08 104.86 34.11 103.48 30.29C103.85 49.49 100.23 74 83.7001 91C70.5 104.58 48.0001 112.49 38.9301 111C49.4301 122.21 64.5001 127.98 79.8001 126.64C93.3801 125.54 109.23 120.03 111.49 113.83C112.03 112.37 111.95 110.76 111.29 109.36Z" fill="#CCCCCC" style="fill:#CCCCCC;fill:color(display-p3 0.8000 0.8000 0.8000);fill-opacity:1;"/>
<path d="M61.6701 53.8801C53.1601 53.9301 44.6601 53.2101 36.2801 51.7401C34.8601 51.5001 33.5201 52.4501 33.2801 53.8701C33.2301 54.1601 33.2301 54.4501 33.2801 54.7401C35.7001 66.5801 47.3501 76.3001 61.7001 76.3001C77.3901 76.3001 87.9601 66.3001 90.1501 54.7001C90.4001 53.2901 89.4601 51.9501 88.0501 51.7001C87.7501 51.6501 87.4501 51.6501 87.1501 51.7001C78.7401 53.1901 70.2101 53.9201 61.6701 53.8801Z" fill="url(#paint0_linear_402_206)" style=""/>
<path d="M63.6801 57.2601H61.6801H60.7501C56.5001 57.2601 52.3301 57.0501 48.3101 56.7201V74.9201C48.3201 81.9301 53.9901 87.6101 61.0001 87.6201H63.4201C70.4401 87.6201 76.1201 81.9401 76.1301 74.9201V56.6301C72.1101 57.0001 67.9301 57.2101 63.6801 57.2601Z" fill="url(#paint1_linear_402_206)" style=""/>
<path opacity="0.3" d="M62.2001 73C63.0101 73.01 63.6701 72.35 63.6801 71.54V71.53V57.26H61.6801H60.7501V71.51C60.7401 72.32 61.3901 72.99 62.2001 73Z" fill="#AB3F2E" style="fill:#AB3F2E;fill:color(display-p3 0.6706 0.2471 0.1804);fill-opacity:1;"/>
<path d="M75.18 45.6C81.6141 45.6 86.83 40.3842 86.83 33.9501C86.83 27.5159 81.6141 22.3 75.18 22.3C68.7459 22.3 63.53 27.5159 63.53 33.9501C63.53 40.3842 68.7459 45.6 75.18 45.6Z" fill="white" style="fill:white;fill-opacity:1;"/>
<path d="M75.6801 39.0301C78.4415 39.0301 80.6801 36.7557 80.6801 33.9501C80.6801 31.1445 78.4415 28.8701 75.6801 28.8701C72.9186 28.8701 70.6801 31.1445 70.6801 33.9501C70.6801 36.7557 72.9186 39.0301 75.6801 39.0301Z" fill="#1F1F1F" style="fill:#1F1F1F;fill:color(display-p3 0.1208 0.1208 0.1208);fill-opacity:1;"/>
<path d="M55.13 36L55.03 35.84C54.92 35.66 54.8 35.48 54.67 35.31C54.23 34.73 53.75 34.18 53.23 33.67C52.53 33 51.78 32.37 51 31.8C50.57 31.49 50.12 31.16 49.65 30.86C49.18 30.56 48.71 30.28 48.19 29.97C47.67 29.66 47.19 29.44 46.71 29.19C46.23 28.94 45.71 28.73 45.21 28.51C44.3 28.11 43.37 27.78 42.41 27.51C41.71 27.32 40.99 27.19 40.27 27.11H39.63H39.4C38.49 27.08 37.74 27.79 37.7 28.69C37.67 29.42 38.14 30.08 38.84 30.31L39.02 30.37L39.6 30.56C39.98 30.69 40.53 30.89 41.21 31.18C41.89 31.47 42.67 31.83 43.51 32.24L44.8 32.91C45.24 33.14 45.66 33.37 46.14 33.65L46.41 33.81L45.51 33.9C45.16 33.96 45 33.98 44.67 34.05C44.34 34.12 44.06 34.17 43.79 34.24C43.23 34.38 42.69 34.56 42.15 34.76C41.18 35.12 40.26 35.6 39.41 36.18C39.06 36.42 38.73 36.69 38.41 36.97C38.16 37.19 37.92 37.43 37.7 37.68C37.51 37.89 37.38 38.07 37.28 38.19L37.14 38.38C36.6 39.11 36.75 40.13 37.48 40.67C38.06 41.1 38.86 41.1 39.44 40.67L39.62 40.54L39.74 40.45L40.07 40.21C40.49 39.93 40.93 39.67 41.39 39.45C42.07 39.13 42.78 38.86 43.5 38.64C43.9 38.52 44.33 38.42 44.77 38.32C44.99 38.26 45.2 38.23 45.4 38.19C45.6 38.15 45.94 38.11 46.11 38.08C46.99 37.96 47.88 37.9 48.77 37.9C49.52 37.91 50.28 37.98 51.02 38.11C51.34 38.17 51.63 38.22 51.87 38.29C52.08 38.34 52.28 38.4 52.48 38.47L52.68 38.52L52.89 38.61L53.06 38.69C53.74 38.98 54.53 38.79 55 38.22C55.23 37.94 55.36 37.58 55.36 37.22C55.44 36.8 55.36 36.36 55.13 36Z" fill="#1F1F1F" style="fill:#1F1F1F;fill:color(display-p3 0.1208 0.1208 0.1208);fill-opacity:1;"/>
<defs>
<linearGradient id="paint0_linear_402_206" x1="61.7165" y1="76.3501" x2="61.7165" y2="51.7108" gradientUnits="userSpaceOnUse">
<stop stop-color="#404040" style="stop-color:#404040;stop-color:color(display-p3 0.2510 0.2510 0.2510);stop-opacity:1;"/>
<stop offset="0.12" stop-color="#313131" style="stop-color:#313131;stop-color:color(display-p3 0.1917 0.1917 0.1917);stop-opacity:1;"/>
<stop offset="0.44" stop-color="#343434" style="stop-color:#343434;stop-color:color(display-p3 0.2042 0.2042 0.2042);stop-opacity:1;"/>
<stop offset="0.74" stop-color="#202020" style="stop-color:#202020;stop-color:color(display-p3 0.1250 0.1250 0.1250);stop-opacity:1;"/>
<stop offset="1" stop-color="#1E1E1E" style="stop-color:#1E1E1E;stop-color:color(display-p3 0.1167 0.1167 0.1167);stop-opacity:1;"/>
</linearGradient>
<linearGradient id="paint1_linear_402_206" x1="62.2201" y1="87.6201" x2="62.2201" y2="56.6301" gradientUnits="userSpaceOnUse">
<stop stop-color="#FF4081" style="stop-color:#FF4081;stop-color:color(display-p3 1.0000 0.2510 0.5059);stop-opacity:1;"/>
<stop offset="0.28" stop-color="#FB3D80" style="stop-color:#FB3D80;stop-color:color(display-p3 0.9843 0.2392 0.5020);stop-opacity:1;"/>
<stop offset="0.55" stop-color="#EF337D" style="stop-color:#EF337D;stop-color:color(display-p3 0.9373 0.2000 0.4902);stop-opacity:1;"/>
<stop offset="0.82" stop-color="#DB2378" style="stop-color:#DB2378;stop-color:color(display-p3 0.8588 0.1373 0.4706);stop-opacity:1;"/>
<stop offset="1" stop-color="#CA1573" style="stop-color:#CA1573;stop-color:color(display-p3 0.7922 0.0824 0.4510);stop-opacity:1;"/>
</linearGradient>
</defs>
</svg>

<?xml version="1.0" encoding="utf-8"?>
<!-- Generator: Adobe Illustrator 24.1.2, SVG Export Plug-In . SVG Version: 6.00 Build 0)  -->
<svg version="1.1" id="Layer_1" xmlns="http://www.w3.org/2000/svg" xmlns:xlink="http://www.w3.org/1999/xlink" x="0px" y="0px"
	 viewBox="0 0 128 128" style="enable-background:new 0 0 128 128;" xml:space="preserve">
<g>
	<g id="facial_expressions">
		<g id="ghost">
			<path style="fill:none;" d="M103.13,28c2.27,8.6,0.12,47.26-17.67,65.57c-13.88,14.28-43,19.77-47.33,17.13"/>
			<path style="fill:#E0E0E0;" d="M111.29,109.36c-0.87-1.81-2.85-2.8-4.82-2.41l-1,0.11h-0.26c-3.78,0-5.44-1-6.59-3.81
				c-1.75-4.27-0.31-10.54,1.15-15.52c3-10.24,7.1-24.25,7-38c-0.01-2.55-0.16-5.09-0.47-7.62c-0.49-4.03-1.44-8-2.82-11.82
				C103.85,49.49,100.23,74,83.7,91c-13.2,13.58-35.7,21.49-44.77,20c10.5,11.21,25.57,16.98,40.87,15.64
				c13.58-1.1,29.43-6.61,31.69-12.81C112.03,112.37,111.95,110.76,111.29,109.36z"/>
		</g>
		<g id="ghost-2">
			<path style="fill:#E0E0E0;" d="M27.63,43.86c-5.81-0.68-11.83-3.43-14-8.93c-1.71-4.27-3.17-10.64-8.16-9.88
				c-6.2,0.95-4.75,13.44-3.3,18.26C8.06,62.91,27.25,66,27.56,65.53S29.07,43.84,27.63,43.86z"/>
			<path style="fill:#CCCCCC;" d="M27.63,43.86c-3.16-0.33-6.2-1.35-8.91-3c0.67,2.58,0.39,5.31-0.8,7.7
				c-2.21,5-8.32,7.68-8.32,7.68c7.78,8.13,17.74,9.64,18,9.3C28,65,29.07,43.84,27.63,43.86z"/>
			<path style="fill:#E0E0E0;" d="M100.37,43.86c5.81-0.68,11.83-3.43,14-8.93c1.71-4.27,3.17-10.64,8.16-9.88
				c6.17,0.94,4.72,13.44,3.27,18.26c-5.89,19.6-25.08,22.7-25.39,22.22S98.93,43.84,100.37,43.86z"/>
			<path style="fill:#CCCCCC;" d="M120.11,48.06c-3.78,4.17-12.44,8.15-20.38,8.73c0.03,2.92,0.25,5.84,0.64,8.74
				c0.32,0.47,19.5-2.62,25.39-22.22c1.02-3.65,1.42-7.44,1.17-11.22C126.36,37.99,123.97,43.57,120.11,48.06z"/>
			<path style="fill:#E0E0E0;" d="M106.82,49.7c-0.01-2.55-0.16-5.09-0.47-7.62c-2-16.35-11.24-30.55-24.12-37.08
				C76.4,1.98,69.83,0.71,63.3,1.35c-13.57,1.44-25.68,9.14-32.73,20.82c-17.74,29.67-6.38,65.56-3.38,71.66
				c15.34,31.17,40.12,33.83,52.62,32.82c13.58-1.1,29.43-6.61,31.69-12.81c0.53-1.46,0.46-3.07-0.2-4.48
				c-0.87-1.81-2.85-2.8-4.82-2.41l-1,0.11h-0.26c-3.78,0-5.44-1-6.59-3.81c-1.75-4.27-0.31-10.54,1.15-15.52
				C102.78,77.51,106.89,63.5,106.82,49.7z"/>
			<path style="fill:none;" d="M103.13,28c2.27,8.6,0.12,47.26-17.67,65.57c-13.88,14.28-43,19.77-47.33,17.13"/>
			<path style="fill:#CCCCCC;" d="M111.29,109.36c-0.87-1.81-2.85-2.8-4.82-2.41l-1,0.11h-0.26c-3.78,0-5.44-1-6.59-3.81
				c-1.75-4.27-0.31-10.54,1.15-15.52c3-10.24,7.1-24.25,7-38c-0.01-2.55-0.16-5.09-0.47-7.62c-0.49-4.03-1.44-8-2.82-11.82
				C103.85,49.49,100.23,74,83.7,91c-13.2,13.58-35.7,21.49-44.77,20c10.5,11.21,25.57,16.98,40.87,15.64
				c13.58-1.1,29.43-6.61,31.69-12.81C112.03,112.37,111.95,110.76,111.29,109.36z"/>
		</g>
		<g id="ghost-face">
			<g id="mouth">
				<g>
					<defs>
						<path id="SVGID_1_" d="M61.67,53.88c-8.51,0.05-17.01-0.67-25.39-2.14c-1.42-0.24-2.76,0.71-3,2.13
							c-0.05,0.29-0.05,0.58,0,0.87C35.7,66.58,47.35,76.3,61.7,76.3c15.69,0,26.26-10,28.45-21.6c0.25-1.41-0.69-2.75-2.1-3
							c-0.3-0.05-0.6-0.05-0.9,0C78.74,53.19,70.21,53.92,61.67,53.88z"/>
					</defs>
					<clipPath id="SVGID_2_">
						<use xlink:href="#SVGID_1_"  style="overflow:visible;"/>
					</clipPath>
					<g style="clip-path:url(#SVGID_2_);">
						
							<linearGradient id="SVGID_3_" gradientUnits="userSpaceOnUse" x1="61.7164" y1="53.65" x2="61.7164" y2="78.2893" gradientTransform="matrix(1 0 0 -1 0 130)">
							<stop  offset="0" style="stop-color:#404040"/>
							<stop  offset="0.12" style="stop-color:#3E3A35"/>
							<stop  offset="0.44" style="stop-color:#392D1E"/>
							<stop  offset="0.74" style="stop-color:#362510"/>
							<stop  offset="1" style="stop-color:#35220B"/>
						</linearGradient>
						<path style="fill:url(#SVGID_3_);" d="M61.67,53.88c-8.51,0.05-17.01-0.67-25.39-2.14c-1.42-0.24-2.76,0.71-3,2.13
							c-0.05,0.29-0.05,0.58,0,0.87C35.7,66.58,47.35,76.3,61.7,76.3c15.69,0,26.26-10,28.45-21.6c0.25-1.41-0.69-2.75-2.1-3
							c-0.3-0.05-0.6-0.05-0.9,0C78.74,53.19,70.21,53.92,61.67,53.88z"/>
					</g>
				</g>
				
					<linearGradient id="SVGID_4_" gradientUnits="userSpaceOnUse" x1="62.22" y1="42.38" x2="62.22" y2="73.37" gradientTransform="matrix(1 0 0 -1 0 130)">
					<stop  offset="0" style="stop-color:#FF4081"/>
					<stop  offset="0.28" style="stop-color:#FB3D80"/>
					<stop  offset="0.55" style="stop-color:#EF337D"/>
					<stop  offset="0.82" style="stop-color:#DB2378"/>
					<stop  offset="1" style="stop-color:#CA1573"/>
				</linearGradient>
				<path style="fill:url(#SVGID_4_);" d="M63.68,57.26h-2h-0.93c-4.25,0-8.42-0.21-12.44-0.54v18.2
					c0.01,7.01,5.68,12.69,12.69,12.7h2.42c7.02,0,12.7-5.68,12.71-12.7V56.63C72.11,57,67.93,57.21,63.68,57.26z"/>
				<path style="opacity:0.3;fill:#AB3F2E;enable-background:new    ;" d="M62.2,73c0.81,0.01,1.47-0.65,1.48-1.46
					c0,0,0-0.01,0-0.01V57.26h-2h-0.93v14.25C60.74,72.32,61.39,72.99,62.2,73C62.2,73,62.2,73,62.2,73z"/>
			</g>
			<g id="eyes">
				<g id="right-eye">
					<circle id="right-sclera" style="fill:#FFFFFF;" cx="75.18" cy="33.95" r="11.65"/>
					<ellipse id="right-pupil" style="fill:#422B0D;" cx="75.68" cy="33.95" rx="5" ry="5.08"/>
				</g>
				<path id="left-eye" style="fill:#422B0D;" d="M55.13,36l-0.1-0.16c-0.11-0.18-0.23-0.36-0.36-0.53
					c-0.44-0.58-0.92-1.13-1.44-1.64c-0.7-0.67-1.45-1.3-2.23-1.87c-0.43-0.31-0.88-0.64-1.35-0.94s-0.94-0.58-1.46-0.89
					s-1-0.53-1.48-0.78s-1-0.46-1.5-0.68c-0.91-0.4-1.84-0.73-2.8-1c-0.7-0.19-1.42-0.32-2.14-0.4h-0.64H39.4
					c-0.91-0.03-1.66,0.68-1.7,1.58c-0.03,0.73,0.44,1.39,1.14,1.62l0.18,0.06l0.58,0.19c0.38,0.13,0.93,0.33,1.61,0.62
					s1.46,0.65,2.3,1.06l1.29,0.67c0.44,0.23,0.86,0.46,1.34,0.74l0.27,0.16l-0.9,0.09c-0.35,0.06-0.51,0.08-0.84,0.15
					s-0.61,0.12-0.88,0.19c-0.56,0.14-1.1,0.32-1.64,0.52c-0.97,0.36-1.89,0.84-2.74,1.42c-0.35,0.24-0.68,0.51-1,0.79
					c-0.25,0.22-0.49,0.46-0.71,0.71c-0.19,0.21-0.32,0.39-0.42,0.51l-0.14,0.19c-0.54,0.73-0.39,1.75,0.34,2.29
					c0.58,0.43,1.38,0.43,1.96,0l0.18-0.13l0.12-0.09l0.33-0.24c0.42-0.28,0.86-0.54,1.32-0.76c0.68-0.32,1.39-0.59,2.11-0.81
					c0.4-0.12,0.83-0.22,1.27-0.32c0.22-0.06,0.43-0.09,0.63-0.13s0.54-0.08,0.71-0.11c0.88-0.12,1.77-0.18,2.66-0.18
					c0.75,0.01,1.51,0.08,2.25,0.21c0.32,0.06,0.61,0.11,0.85,0.18c0.21,0.05,0.41,0.11,0.61,0.18l0.2,0.05l0.21,0.09l0.17,0.08
					c0.68,0.29,1.47,0.1,1.94-0.47c0.23-0.28,0.36-0.64,0.36-1C55.44,36.8,55.36,36.36,55.13,36z"/>
			</g>
		</g>
	</g>
</g>
</svg>
